X:248
%%topspace -27
%%musicspace -16
T:Red House
M:4/4
L:1/8
K:Am
"Am"A2 a4 gf | e4 c4 | "G"B2 g4 fe | "Dm"d2ed "Em"edcB | 
"Am"A2 a4 gf | e4 c4 | "G"dcBA "E"^GABd |1 "Am"c2A2 A4 :|2 "Am"c2A2 A2 || 
|: cd | "Am"edcB ABcd | e4 c4 | "G"dcBA GABc | d4 B4 | 
"Am"edcB ABcd | e4 c4 | "G"dcBA "E"^GABd | "Am"c2A2 A2 ::
cd | "C"e2e2 e2cd | e2e2 e2Bc | "G"d2d2 d2Bc | d2d2 d2cd | 
"Am"e2e2 e2cd | "(Dm)"e2e2 e2Bc | "G"dcBA "E"^GABd |1 "Am"c2A2 A2 :|2 "Am"c2A2 A4 |]

